X:1
T:Title
%%score { ( 1 2 6 ) | ( 3 4 5 ) }
L:1/8
Q:1/4=100
M:4/4
K:C
V:1 treble nm="Grand Piano"
V:2 treble 
V:6 treble 
V:3 bass 
V:4 bass 
V:5 bass 
V:1
 G4 A2 G2 | G4 A2 G2 | c2 B2 A2 E2 | A4 G4 | G4 A2 G2 | d4 e2 d2 | d2 c2 B2 A2 |[M:5/4] d4 z2 z4 | %8
w: J.~Lincoln~Hall * *||||||||
[M:4/4] c2 c>c B2 A2 | G8 | A2 A>A G2 F2 | E8 | [Ge]2 [Ge]>[Ge] d2 B2 | c2 c>c B2 A2 | %14
w: ||||||
 G2 c>c e2 d2 | [Ec]8 |] %16
w: ||
V:2
 E8 | F8 | E6 z2 | [B,F]8 | [B,F]8 | [FB]8 | ^F8 |[M:5/4] z2 z B G6 |[M:4/4] x8 | %9
 [CE]2 [B,F]2 [CE]4 | x8 | z2 C2 B,4 | x8 | x8 | x8 | x8 |] %16
V:3
 z2 z[K:treble] A C2[K:bass] G,2 | z2 z[K:treble] A B,2[K:bass] G,2 | z2 G,2 C2 G,2 | %3
 z2 z[K:treble] ^G G,2[K:bass] D,2 | z2 z[K:treble] A G,2[K:bass] D,2 | %5
 z2 z[K:treble] ^c G,2[K:bass] D,2 | z2 A,2 D2 C2 |[M:5/4][K:treble] [G,F]4- [G,B,F]6 | %8
[M:4/4] C2 C>C[K:bass] B,2 A,2 | C,2 D,2 E,4 | A,2 A,>A, G,2 F,2 | [E,^G,B,]2 [E,A,]2 [E,G,]4 | %12
 [C,C]2 [C,C]>[C,C][K:treble] [G,B,F]2 [G,DF]2 | [A,CE]2 [A,CE]>[A,CE][K:bass] [^F,C_E]2 [F,CE]2 | %14
 [G,CE]2 [G,CE]>[G,CE] [G,CG]2 [G,B,F]2 | [C,C]8 |] %16
V:4
 z2 G,2[K:treble] z4[K:bass] | z2 G,2[K:treble] z4[K:bass] | C,8 | z2 D,2[K:treble] z4[K:bass] | %4
 z2 D,2[K:treble] z4[K:bass] | z2 D,2[K:treble] z4[K:bass] | D,8 |[M:5/4][K:treble] B,2 z2 z2 z4 | %8
[M:4/4] x4[K:bass] x4 | x8 | x8 | x8 | x4[K:treble] x4 | x4[K:bass] x4 | x8 | x8 |] %16
V:5
 C,8[K:treble][K:bass] | D,8[K:treble][K:bass] | x8 | G,,8[K:treble][K:bass] | %4
 G,,8[K:treble][K:bass] | G,,8[K:treble][K:bass] | x8 |[M:5/4][K:treble] x10 | %8
[M:4/4] x4[K:bass] x4 | x8 | x8 | x8 | x4[K:treble] x4 | x4[K:bass] x4 | x8 | x8 |] %16
V:6
 x8 | x8 | x8 | x8 | x8 | x8 | x8 |[M:5/4] z2 D2 z2 z4 |[M:4/4] x8 | x8 | x8 | x8 | x8 | x8 | x8 | %15
 x8 |] %16

